SVG-Icons/Technical/Grafana/icon-traces-black.svg

<svg width="22" height="22" viewBox="0 0 22 22" fill="none" xmlns="http://www.w3.org/2000/svg">
<path d="M4 9.52632C4 9.21053 4.18333 9 4.36667 9H14.6333C14.8167 9 15 9.21053 15 9.52632V12.4737C15 12.7895 14.8167 13 14.6333 13H4.36667C4.18333 13 4 12.7895 4 12.4737V9.52632V9.52632Z" stroke="black" stroke-width="2" stroke-linecap="round" stroke-linejoin="round"/>
<path d="M1 1.43243C1 1.21622 1.22222 1 1.66667 1H20.3333C20.6667 1 21 1.21622 21 1.54054V4.45946C21 4.78378 20.6667 5 20.3333 5H1.66667C1.22222 5 1 4.78378 1 4.45946V1.43243Z" stroke="black" stroke-width="2" stroke-linecap="round" stroke-linejoin="round"/>
<path d="M9 17.5263C9 17.2105 9.25352 17 9.50704 17H20.493C20.831 17 21 17.2105 21 17.5263V20.4737C21 20.7895 20.7465 21 20.493 21H9.50704C9.16901 21 9 20.7895 9 20.4737V17.5263V17.5263Z" stroke="black" stroke-width="2" stroke-linecap="round" stroke-linejoin="round"/>
</svg>

<svg xmlns="http://www.w3.org/2000/svg" fill="none" viewBox="0 0 22 22"><path stroke="#000" stroke-linecap="round" stroke-linejoin="round" stroke-width="2" d="M4 9.526C4 9.211 4.183 9 4.367 9h10.266c.184 0 .367.21.367.526v2.948c0 .316-.183.526-.367.526H4.367C4.183 13 4 12.79 4 12.474V9.526v0ZM1 1.432C1 1.216 1.222 1 1.667 1h18.666c.334 0 .667.216.667.54v2.92c0 .324-.333.54-.667.54H1.667C1.222 5 1 4.784 1 4.46V1.431ZM9 17.526c0-.316.254-.526.507-.526h10.986c.338 0 .507.21.507.526v2.948a.518.518 0 0 1-.507.526H9.507C9.169 21 9 20.79 9 20.474v-2.948 0Z"/></svg>
